resources/images/myprofile.svg

<svg width="24" height="24" viewBox="0 0 24 24" fill="none" xmlns="http://www.w3.org/2000/svg">
<path d="M15.25 7C15.25 8.79493 13.7949 10.25 12 10.25V11.75C14.6234 11.75 16.75 9.62335 16.75 7H15.25ZM12 10.25C10.2051 10.25 8.75 8.79493 8.75 7H7.25C7.25 9.62335 9.37665 11.75 12 11.75V10.25ZM8.75 7C8.75 5.20507 10.2051 3.75 12 3.75V2.25C9.37665 2.25 7.25 4.37665 7.25 7H8.75ZM12 3.75C13.7949 3.75 15.25 5.20507 15.25 7H16.75C16.75 4.37665 14.6234 2.25 12 2.25V3.75ZM18.25 17.5C18.25 18.0294 17.8014 18.7105 16.6143 19.3041C15.4722 19.8751 13.8418 20.25 12 20.25V21.75C14.0242 21.75 15.8938 21.3414 17.2852 20.6457C18.6316 19.9725 19.75 18.9036 19.75 17.5H18.25ZM12 20.25C10.1582 20.25 8.52782 19.8751 7.38566 19.3041C6.19864 18.7105 5.75 18.0294 5.75 17.5H4.25C4.25 18.9036 5.36836 19.9725 6.71484 20.6457C8.10618 21.3414 9.97582 21.75 12 21.75V20.25ZM5.75 17.5C5.75 16.9706 6.19864 16.2895 7.38566 15.6959C8.52782 15.1249 10.1582 14.75 12 14.75V13.25C9.97582 13.25 8.10618 13.6586 6.71484 14.3543C5.36836 15.0275 4.25 16.0964 4.25 17.5H5.75ZM12 14.75C13.8418 14.75 15.4722 15.1249 16.6143 15.6959C17.8014 16.2895 18.25 16.9706 18.25 17.5H19.75C19.75 16.0964 18.6316 15.0275 17.2852 14.3543C15.8938 13.6586 14.0242 13.25 12 13.25V14.75Z" fill="#505050"/>
</svg>

<svg xmlns="http://www.w3.org/2000/svg" width="24" height="24" viewBox="0 0 24 24">
    <g id="myprofile" transform="translate(-10259 -3246)">
        <rect id="Rectangle_44211" data-name="Rectangle 44211" width="24" height="24" transform="translate(10259 3246)" fill="#fff" opacity="0"/>
        <path id="myprofile-2" data-name="myprofile" d="M15.25,7A3.25,3.25,0,0,1,12,10.25v1.5A4.75,4.75,0,0,0,16.75,7ZM12,10.25A3.25,3.25,0,0,1,8.75,7H7.25A4.75,4.75,0,0,0,12,11.75ZM8.75,7A3.25,3.25,0,0,1,12,3.75V2.25A4.75,4.75,0,0,0,7.25,7ZM12,3.75A3.25,3.25,0,0,1,15.25,7h1.5A4.75,4.75,0,0,0,12,2.25ZM18.25,17.5c0,.529-.449,1.211-1.636,1.8A10.613,10.613,0,0,1,12,20.25v1.5a12.091,12.091,0,0,0,5.285-1.1c1.346-.673,2.465-1.742,2.465-3.146ZM12,20.25A10.613,10.613,0,0,1,7.386,19.3C6.2,18.711,5.75,18.029,5.75,17.5H4.25c0,1.4,1.118,2.472,2.465,3.146A12.091,12.091,0,0,0,12,21.75ZM5.75,17.5c0-.529.449-1.211,1.636-1.8A10.613,10.613,0,0,1,12,14.75v-1.5a12.091,12.091,0,0,0-5.285,1.1C5.368,15.028,4.25,16.1,4.25,17.5ZM12,14.75a10.613,10.613,0,0,1,4.614.946c1.187.594,1.636,1.275,1.636,1.8h1.5c0-1.4-1.118-2.472-2.465-3.146A12.091,12.091,0,0,0,12,13.25Z" transform="translate(10259 3245.75)" fill="#505050"/>
    </g>
</svg>
